X:1
T:Mrs MUIR MACKENZIE
T:Mrs MUIR MACKENZIE
T:Wm GOW
C:Wm GOW
%%score 1 2
L:1/8
M:2/2
K:C
V:1 treble 
V:2 bass 
V:1
 E | C c2 G ECC_E | D _B2 F D_B,B,D | C c2 G E>FGf | ecde c/c/c c2 | G c2 G ECC_E | %6
 D _B2 F D_B,B,D | C c2 G E>FGf | ecde c/c/cc || e | gece .g(aTg>e) | fd_Bd .f(gTf>d) | %12
 gece .g(aTg>e) | fdg>e c/c/c ce | gece .g(aTg>e) | fd_Bd .f(gTf>d) | cedf egfa | gefd c/c/cc |] %18
V:2
 z | C,2 [G,C]2 C,2 [_E,G,]2 | _B,,2 [F,_B,]2 B,,2 [D,F,]2 | C,2 [G,C]2 [G,C]2 [G,C]2 | %4
 [G,CE]2 [G,B,F]2 [CE]2 [CE]2 | C,2 [G,C]2 C,2 [_E,B,]2 | _B,,2 [F,_B,]2 B,,2 [D,F,]2 | %7
 C,2 [G,C]2 [G,C]2 [G,C]2 | [G,CE]2 [G,B,F]2 [CE]2 [CE] || z | C,2 [G,C]2 E,2 [G,C]2 | %11
 _B,,2 [F,_B,]2 D,2 [F,B,]2 | C,2 [G,C]2 E,2 [G,C]2 | [G,B,]2 [G,B,]2 [C,C]2 [C,C]2 | %14
 C,2 [G,C]2 E,2 [G,C]2 | _B,,2 [F,_B,]2 D,2 [F,B,]2 | C,2 [G,B,]2 [G,C]2 [G,D]2 | %17
 [G,E]2 [G,B,]2 [C,C]2 [C,E,G,C] |] %18

